resources/svg/archlinux.svg

<svg xmlns="http://www.w3.org/2000/svg" viewBox="0 0 24 24" fill="currentColor"><path fill="currentColor" fill-rule="evenodd" d="M11.995499,0 C10.9272763,2.61898783 10.2829772,4.33212022 9.09364861,6.87325951 C9.82285899,7.64621596 10.7179267,8.54636058 12.1714997,9.56299285 C10.6087581,8.91993273 9.54277553,8.27431817 8.74615646,7.60436135 C7.22404876,10.7804724 4.83934636,15.3047005 0,24 C3.8035621,21.8041428 6.75200705,20.4503725 9.49981901,19.9338097 C9.38183641,19.4263273 9.31474077,18.8773854 9.31929729,18.3046251 L9.32381903,18.1827747 C9.38418076,15.7459387 10.6518189,13.8720119 12.1534614,13.9992474 C13.6551031,14.1264836 14.8223099,16.2062608 14.7619552,18.6430989 C14.7506091,19.1016345 14.6988943,19.5427398 14.6085152,19.9518612 C17.3264906,20.483546 20.2434156,21.8338506 23.9955134,24 C23.2556658,22.6379048 22.5952972,21.4100753 21.9646676,20.2406911 C20.9713321,19.4707837 19.9352208,18.4687462 17.8217601,17.3839783 C19.2744348,17.7614433 20.3145182,18.1969375 21.1252451,18.6837145 C14.7134752,6.74608943 14.1942543,5.15982659 11.995499,0 L11.995499,0 Z"/></svg>

<svg viewBox="0 0 24 24"><path fill="currentColor" fill-rule="evenodd" d="M11.995 0c-1.068 2.619-1.712 4.332-2.901 6.873c.729.773 1.624 1.673 3.077 2.69c-1.562-.643-2.628-1.289-3.425-1.959C7.224 10.78 4.84 15.304 0 24c3.804-2.196 6.752-3.55 9.5-4.066a6.964 6.964 0 0 1-.18-1.63l.004-.121c.06-2.437 1.328-4.311 2.83-4.184c1.501.127 2.668 2.207 2.608 4.644c-.011.459-.063.9-.153 1.309c2.717.532 5.634 1.882 9.387 4.048c-.74-1.362-1.4-2.59-2.031-3.76c-.994-.77-2.03-1.771-4.143-2.856c1.452.377 2.493.813 3.303 1.3C14.713 6.746 14.195 5.16 11.995 0z"/></svg>
